assets/icons/email.svg

<svg width="90" height="58" viewBox="0 0 90 58" fill="none" xmlns="http://www.w3.org/2000/svg">
<path fill-rule="evenodd" clip-rule="evenodd" d="M85.466 0H45.057H44.942H4.534C2.034 0 0 2.034 0 4.534V53.276C0 55.776 2.034 57.81 4.534 57.81H41.763H44.996H85.466C87.966 57.81 90 55.776 90 53.276V4.534C90 2.034 87.966 0 85.466 0ZM44.946 3.4H45.053H83.761L44.999 33.433L6.238 3.4H44.946ZM85.466 54.409C86.09 54.409 86.6 53.901 86.6 53.276V5.804L56.195 29.361L77.272 45.718L77.256 45.732C77.59 46.068 77.796 46.53 77.796 47.041C77.796 48.069 76.964 48.901 75.937 48.901C75.427 48.901 74.964 48.695 74.628 48.362L74.626 48.364L53.22 31.666L46.801 36.639C46.321 37.063 45.695 37.331 44.999 37.331C44.304 37.331 43.677 37.064 43.196 36.639L36.779 31.667L15.373 48.364L15.371 48.362C15.035 48.695 14.573 48.901 14.062 48.901C13.036 48.901 12.203 48.069 12.203 47.041C12.203 46.53 12.41 46.068 12.743 45.732L12.729 45.718L33.804 29.361L3.4 5.804V53.276C3.4 53.901 3.909 54.409 4.534 54.409H41.904H47.626H85.466Z" fill="#ACD9B2"/>
</svg>

<?xml version="1.0" encoding="utf-8"?>
<!-- Generator: Adobe Illustrator 26.5.0, SVG Export Plug-In . SVG Version: 6.00 Build 0)  -->
<svg version="1.1" id="Capa_1" xmlns="http://www.w3.org/2000/svg" xmlns:xlink="http://www.w3.org/1999/xlink" x="0px" y="0px"
	 viewBox="0 0 90 58" style="enable-background:new 0 0 90 58;" xml:space="preserve">
<style type="text/css">
	.st0{fill-rule:evenodd;clip-rule:evenodd;fill:#058E18;}
</style>
<path class="st0" d="M85.5,0H45.1h-0.1H4.5C2,0,0,2,0,4.5v48.7c0,2.5,2,4.5,4.5,4.5h37.2H45h40.5c2.5,0,4.5-2,4.5-4.5V4.5
	C90,2,88,0,85.5,0z M44.9,3.4h0.1h38.7L45,33.4L6.2,3.4H44.9z M85.5,54.4c0.6,0,1.1-0.5,1.1-1.1V5.8L56.2,29.4l21.1,16.4l0,0
	c0.3,0.3,0.5,0.8,0.5,1.3c0,1-0.8,1.9-1.9,1.9c-0.5,0-1-0.2-1.3-0.5l0,0L53.2,31.7l-6.4,5c-0.5,0.4-1.1,0.7-1.8,0.7
	c-0.7,0-1.3-0.3-1.8-0.7l-6.4-5L15.4,48.4l0,0c-0.3,0.3-0.8,0.5-1.3,0.5c-1,0-1.9-0.8-1.9-1.9c0-0.5,0.2-1,0.5-1.3l0,0l21.1-16.4
	L3.4,5.8v47.5c0,0.6,0.5,1.1,1.1,1.1h37.4h5.7H85.5z"/>
</svg>
